X:1
T:Title
%%score { ( 1 3 4 ) | ( 2 5 ) }
L:1/8
M:4/4
K:Bb
V:1 bass nm="Grand Piano"
V:3 bass 
V:4 bass 
V:2 bass 
V:5 bass 
V:1
 z4 z2[Q:1/4=100] [F,B,D]>[F,CE] | [B,DF]>[B,DF] [DFB]>[DF] [Fd]2 [FB]>[FA] | %2
[M:3/4] G>c B>G [DF]2 |[M:1/4] [B,D]>[CE] |[M:4/4] [DF]>[DB] [DB]>[DB] [=EB]>[EB] [CFA]>[CEG] | %5
[M:3/4] [CFc]6 |[M:1/4][K:bass] [B,D]>[F,CE] | %7
[M:4/4][K:treble] [B,DF]>[B,DF] [DFB]>[DF] [Fd]2 [FB]>[FA] |[M:3/4] G>G c>G [Ge]2 |[M:1/4] G>G | %10
[M:4/4] F>F B>c d>B c>c |[M:5/8] [DB]- [DB]3 z |[M:3/8] dA>B |[M:4/4] z z/ D/ D>D z B .[DFA]2 | %14
 [A,E]E z E Ae =B>d | c6 z2 | B6 z2 | z z/ D/ DD z Bdf | .G2 e4 z2 | %19
[M:35/32] z3/2 D/DDDdd-(3:2:4d3/2-d/4c3/4-c/8 | %20
[M:3/4] B6[Q:1/4=99][Q:1/4=97][Q:1/4=96][Q:1/4=94][Q:1/4=93][Q:1/4=91][Q:1/4=90][Q:1/4=88][Q:1/4=87][Q:1/4=85][Q:1/4=84][Q:1/4=82][Q:1/4=81][Q:1/4=79][Q:1/4=78][Q:1/4=76] |] %21
V:2
 z4 z2 B,,>B,, | B,,>B,, B,,>[B,,B,] [B,,B,]2 [D,B,]>[D,B,] | %2
[M:3/4] [E,B,E]>[E,G,E] [E,G,E]>[E,B,E] [B,,B,]2 |[M:1/4] [B,,F,]>[B,,F,] | %4
[M:4/4] [B,,B,]>[B,,B,] [B,,B,]>[B,,B,] [C,G,]>[C,G,] C,>B, |[M:3/4] A,2 A,>G, F,E, | %6
[M:1/4] D,>C, |[M:4/4] B,,>B,, B,,>[B,,B,] [B,,B,]2 [D,B,]>[D,B,] | %8
[M:3/4] [E,B,E]>[E,B,E] [E,G,E]>[E,CE] [C,C]2 |[M:1/4] [E,B,E]>[E,B,E] | %10
[M:4/4] [F,B,D]>[F,B,D] [F,B,D]>[F,A,E] [F,B,F]>[F,B,D] [F,A,E]>[F,A,E] | %11
[M:5/8] [B,,B,]- [B,,B,]3 z |[M:3/8] z3 |[M:4/4] z z/ [B,,B,]/ [B,,B,]>[B,,B,] [B,,B,]2 z G | %14
 C,[C,A,][F,A,E][F,A,] [F,CE]2 z2 | z z/ [F,A,]/ [F,A,][F,A,] [F,A,]2 z2 | %16
 z z/ [B,,B,]/ [B,,F,][B,,F,] [B,,F,]2 z2 | z z/ [B,,B,]/ [B,,B,][B,,B,] [B,,B,]2 B,D | %18
 [E,E][E,E][E,C][E,C] [E,C]2 z2 | %19
[M:35/32] z3/2 [F,B,]/[F,B,][F,B,][F,B,][F,B,F][F,A,E]-(3:2:4[F,A,E]3/2-[F,A,E]/4[F,A,E]3/4-[F,A,E]/8 | %20
[M:3/4] (7:8:7z3/4 B,-B,/8A,3/4G,3/4F,3/8-F,3/2 |] %21
V:3
 x8 | x8 |[M:3/4] x6 |[M:1/4] x2 |[M:4/4] x8 |[M:3/4] x6 |[M:1/4][K:bass] x2 | %7
[M:4/4][K:treble] x8 |[M:3/4] x6 |[M:1/4] x2 |[M:4/4] x8 |[M:5/8] x5 |[M:3/8] x3 |[M:4/4] F6 z2 | %14
 G2 F2 z4 | z z/ E/ EE z d A>c | z z/ D/ DD z d A>B | F6 F2 | f-[Gf]GG GG d>c | %19
[M:35/32] F4- F z3 z3/4 |[M:3/4] (3z z/ G3/2 z2 z2 |] %21
V:4
 x8 | x8 |[M:3/4] x6 |[M:1/4] x2 |[M:4/4] x8 |[M:3/4] x6 |[M:1/4][K:bass] x2 | %7
[M:4/4][K:treble] x8 |[M:3/4] x6 |[M:1/4] x2 |[M:4/4] x8 |[M:5/8] x5 |[M:3/8] x3 | %13
[M:4/4] z4 D2 z2 | x8 | z4 E2 z2 | z4 D2 z2 | z4 D2 z2 | x8 |[M:35/32] x35/4 | %20
[M:3/4] (3:2:4.[B,D]3 F3/2E3/2 D3 |] %21
V:5
 x8 | x8 |[M:3/4] x6 |[M:1/4] x2 |[M:4/4] x8 |[M:3/4] x6 |[M:1/4] x2 |[M:4/4] x8 |[M:3/4] x6 | %9
[M:1/4] x2 |[M:4/4] x8 |[M:5/8] x5 |[M:3/8] x3 |[M:4/4] z4 z2 B,,2 | x8 | x8 | x8 | z4 z2 B,,2 | %18
 x8 |[M:35/32] x35/4 |[M:3/4] B,,6 |] %21

